icon/cg/layout-grid.svg

<svg width="24" height="24" fill="none" xmlns="http://www.w3.org/2000/svg"><path d="M11 7H7v4h4V7ZM11 13H7v4h4v-4ZM13 13h4v4h-4v-4ZM17 7h-4v4h4V7Z" fill="currentColor"/></svg>

<svg viewBox="0 0 24 24" fill="none" xmlns="http://www.w3.org/2000/svg" height="1em" width="1em">
  <path d="M11 7H7V11H11V7Z" fill="currentColor"/>
  <path d="M11 13H7V17H11V13Z" fill="currentColor"/>
  <path d="M13 13H17V17H13V13Z" fill="currentColor"/>
  <path d="M17 7H13V11H17V7Z" fill="currentColor"/>
</svg>
